!!!OTL: Wuduo huaer kai
!!!ARE: Asia, China,ÿLiaoning Beipiao
!! III, 235
!!!SCT: C1742
!!!YEM: Copyright 1995, estate of Helmut Schaffrath.
**kern
*ICvox
*Ivox
*M2/4
*k[b-]
*F:
{8cc
8b-
8cc
8dd
=1
8cc
8b-
4g
=2
8cc
8b-
8cc
8dd
=3
8cc
8b-
4g}
=4
{8g
4g
8g
=5
8ff
8dd
4cc
=6
8g
8g
8a
8g
=7
4f
4f}
=8
{8g
8g
8g
16g
16g
=9
8f
8d
4c
=10
8g
8g
8g
16g
16g
=11
8f
8d
4c}
=12
{8f
8f
8d
8f
=13
4g
8f
8d
=14
8cc
8cc
8b-
8dd
=15
[2cc
=16
2cc]}
==
!!!AGN: Xiaodiao, Jianmianhua diao
!! neuer Text. Melodie sehr bekannt. In der letzten Strophe wird der vorletzte
!!    Takt eine Oktave hoeher gesungen.
!!!AMT: simple duple
!!!AIN: vox
!!!EED: Helmut Schaffrath
!!!EEV: 1.0
*-
!!!ONB: Tied note syntax fixed by Craig Sapp, 2004/05/03/
